X:1
T:Tom Billy's \#2
R:jig
E:10
M:6/8
I:speed 350
F:http://www2.redhawk.org/irish/JohnWalsh/sessionTunesII.abc	 2003-09-06 20:57:48 UT
K:AMix
"A"~a3 Ace| edB "G"BAA| "A"eaa ece| "G"dcB "A"Ace|
~a3 Ace| edB BAB| "G"GBd g2e| "Bm"fdB "A"Ace:||:
